app/manage/pods/nav/assets/img/nav-settings.svg

<?xml version="1.0" encoding="UTF-8" standalone="no"?>
<svg width="100px" height="100px" viewBox="0 0 100 100" version="1.1" xmlns="http://www.w3.org/2000/svg" xmlns:xlink="http://www.w3.org/1999/xlink" xmlns:sketch="http://www.bohemiancoding.com/sketch/ns">
    <!-- Generator: Sketch 3.4.2 (15855) - http://www.bohemiancoding.com/sketch -->
    <title>nav-rules</title>
    <desc>Created with Sketch.</desc>
    <defs></defs>
    <g id="Rules-Engine" stroke="none" stroke-width="1" fill="none" fill-rule="evenodd" sketch:type="MSPage">
        <g id="Nav-Icon" sketch:type="MSArtboardGroup" transform="translate(-145.000000, -133.000000)" stroke="#FFFFFF" stroke-opacity="0.75" stroke-width="3">
            <g id="nav-rules" sketch:type="MSLayerGroup" transform="translate(147.000000, 135.000000)">
                <path d="M17.5860741,85.1366377 L28.846541,79.6630418 C32.1834169,81.6859012 35.8656207,83.1961453 39.7839275,84.0845496 L44.0811013,95.8423269 C45.3736135,95.9467654 46.6805899,96 48,96 C49.6038955,96 51.1894175,95.9213341 52.7529183,95.7676501 L56.8443697,83.9362815 C60.7430185,82.9800334 64.3989635,81.4059093 67.7024758,79.3236377 L79.0569717,84.5999783 C81.2642894,82.7251061 83.2998231,80.6541103 85.1366403,78.4139228 L79.6630418,67.153459 C81.6859012,63.8165831 83.1961453,60.1343793 84.0845496,56.2160725 L95.8423269,51.9188987 C95.9467654,50.6263865 96,49.3194101 96,48 C96,46.3961045 95.9213341,44.8105825 95.7676501,43.2470817 L83.9362815,39.1556303 C82.9800334,35.2569815 81.4059093,31.6010365 79.3236377,28.2975242 L84.5999783,16.9430283 C82.7251061,14.7357106 80.6541103,12.7001769 78.4139228,10.8633597 L67.153459,16.3369582 C63.8165831,14.3140988 60.1343793,12.8038547 56.2160725,11.9154504 L51.9188987,0.157673149 C50.6263865,0.0532346174 49.3194101,0 48,0 C46.3961045,0 44.8105825,0.0786659276 43.2470817,0.232349948 L39.1556303,12.0637185 C35.2569815,13.0199666 31.6010365,14.5940907 28.2975242,16.6763623 L16.9430283,11.4000217 C14.7357106,13.2748939 12.7001769,15.3458897 10.8633597,17.5860772 L16.3369582,28.846541 C14.3140988,32.1834169 12.8038547,35.8656207 11.9154504,39.7839275 L0.157673149,44.0811013 C0.0532346174,45.3736135 0,46.6805899 0,48 C0,49.6038955 0.0786659276,51.1894175 0.232349948,52.7529183 L12.0637185,56.8443697 C13.0199666,60.7430185 14.5940907,64.3989635 16.6763623,67.7024758 L11.4000217,79.0569717 C13.2748939,81.2642894 15.3458897,83.2998231 17.5860772,85.1366403 Z" id="Star-1" sketch:type="MSShapeGroup"></path>
                <circle id="Oval-5" sketch:type="MSShapeGroup" cx="48" cy="48" r="22"></circle>
            </g>
        </g>
    </g>
</svg>

<svg width="100" height="100" viewBox="0 0 100 100" xmlns="http://www.w3.org/2000/svg"><title>nav-rules</title><g transform="translate(2 2)" stroke="#FFF" stroke-opacity="1" stroke-width="4" fill="none" fill-rule="evenodd"><path d="M17.586 85.137l11.26-5.474c3.337 2.023 7.02 3.533 10.938 4.422l4.297 11.757c1.294.105 2.6.158 3.92.158 1.604 0 3.19-.08 4.753-.232l4.09-11.832c3.9-.956 7.556-2.53 10.86-4.612L79.056 84.6c2.207-1.875 4.243-3.946 6.08-6.186l-5.474-11.26c2.023-3.337 3.533-7.02 4.422-10.938l11.757-4.297c.105-1.294.158-2.6.158-3.92 0-1.604-.08-3.19-.232-4.753l-11.832-4.09c-.956-3.9-2.53-7.556-4.612-10.86L84.6 16.944c-1.875-2.207-3.946-4.243-6.186-6.08l-11.26 5.474c-3.337-2.023-7.02-3.533-10.938-4.422L51.92.158C50.625.053 49.32 0 48 0c-1.604 0-3.19.08-4.753.232l-4.09 11.832c-3.9.956-7.556 2.53-10.86 4.612L16.944 11.4c-2.207 1.875-4.243 3.946-6.08 6.186l5.474 11.26c-2.023 3.337-3.533 7.02-4.422 10.938L.158 44.08C.053 45.375 0 46.68 0 48c0 1.604.08 3.19.232 4.753l11.832 4.09c.956 3.9 2.53 7.556 4.612 10.86L11.4 79.056c1.875 2.207 3.946 4.243 6.186 6.08z"/><circle cx="48" cy="48" r="22"/></g></svg>
